X: 477
T: A Whack At The Whigs
R: slip jig
M: 9/8
K: Gdorian
d|:cAG G2 G G2 d|cAG GAd fed|cAG G2 G G2 G|1 FAc fed cAd:|2 FAc fed cAF||
G2 g ga^f g2 G|G2 g g2 a bag|d2 e fge f2 d|cAc fed cAF|
G2 g ga^f g2 G|G2 g g2 a bag|bag agf gfe|dcA FAc fed||

